X:1
T:Title
%%score { ( 1 3 5 ) | ( 2 4 ) }
L:1/8
M:4/4
K:C
V:1 treble nm="Grand Piano"
V:3 treble 
V:5 treble 
V:2 bass 
V:4 bass 
V:1
 z4 z2[Q:1/4=92] [CE][DF] | [EG][EG][_E^F][=EG] [EA][EG][CE][EG] |[M:3/4] [FA][Fd] [Ac][FA] [EG]2 | %3
[M:1/4] DE |[M:4/4] FGAB AFBA |[M:3/4] [EG][EA] [EG][DF] [CE]2 |[M:1/4] [CE][DF] | %7
[M:4/4] [EG][EG][_E^F][=EG] [EA][EG][CE][EG] |[M:3/4] [Ec][Ec] [Ec][GB] [FA]2 |[M:1/4] [FA][GB] | %10
[M:4/4] [Ac][Ac][GB][FA] [EG][Ec][Ac][^Gd] |[M:11/16] ecdB[CEc]3/2 |[M:3/8] GAE |[M:4/4] G6 z2 | %14
 B6 z2 | F6 z2 | G6 z2 | G6 z2 | A6 z2 | %19
[M:17/16] G/-G/-G/-G/-G/-G/-G/-G-<G z/[Q:1/4=81] z/ z/ z/ z[Q:1/4=89][Q:1/4=86][Q:1/4=83][Q:1/4=78][Q:1/4=75][Q:1/4=72] | %20
[M:7/8] c-[Gc-][Fc-] [Fc-][Ec-] c2 |] %21
V:2
 z4 z2 [C,G,][C,G,] | [C,C][C,C][C,C][C,C] [C,C][C,C][C,G,][C,C] | %2
[M:3/4] [F,C][F,C] [F,C][F,C] [C,C]2 |[M:1/4] [G,B,][K:treble][G,C] | %4
[M:4/4] [G,B,D][G,B,D][G,B,D][G,B,D] [G,B,D][G,B,D][G,DF][G,CF] | %5
[M:3/4][K:bass] [C,C][C,C] [C,C][C,G,] [C,G,]2 |[M:1/4] [C,G,][C,G,] | %7
[M:4/4] [C,C][C,C][C,C][C,C] [C,C][C,C][C,G,][C,C] |[M:3/4] [C,G,][C,G,] [C,G,][E,C] [F,C]2 | %9
[M:1/4] [F,C][F,C] |[M:4/4] [F,C][F,C][F,C][F,C] [C,C][C,C][F,C][F,C] | %11
[M:11/16][K:treble] [G,CG][G,E][G,B,F][G,DF][K:bass]C,3/2 |[M:3/8] EEC |[M:4/4] E6[K:treble] z2 | %14
 F6[K:bass] z2 | D2 z2 z4[K:treble] | E6[K:bass] z2 | E6[K:treble] z2 | F6[K:bass][K:treble] z2 | %19
[M:17/16] E/-E/-E/-E/-E/-E/-E/-E-<E[K:bass] z/ z/ z/ z/ z | %20
[M:7/8] [C,C][C,_B,][C,A,] [C,^G,] [C,=G,]3 |] %21
V:3
 x8 | x8 |[M:3/4] x6 |[M:1/4] x2 |[M:4/4] x8 |[M:3/4] x6 |[M:1/4] x2 |[M:4/4] x8 |[M:3/4] x6 | %9
[M:1/4] x2 |[M:4/4] x8 |[M:11/16] x11/2 |[M:3/8] x3 |[M:4/4] z G,A,B, CGAc | z B,B,C DFDE | %15
 z B, z C B,FBA | z CB,A, G,GAE | z G,A,B, Ccdc | z CCC CcBA |[M:17/16] z CCCC3/2[Ec][Ge][Fd] | %20
[M:7/8] E z z z z z2 |] %21
V:4
 x8 | x8 |[M:3/4] x6 |[M:1/4] x[K:treble] x |[M:4/4] x8 |[M:3/4][K:bass] x6 |[M:1/4] x2 | %7
[M:4/4] x8 |[M:3/4] x6 |[M:1/4] x2 |[M:4/4] x8 |[M:11/16][K:treble] x4[K:bass] x3/2 |[M:3/8] x3 | %13
[M:4/4] z C,C,C, C,[K:treble]EEE | z G,[K:bass]G,G, G,DB,C | z G,G,G, G,[K:treble]DGF | %16
 z[K:bass] C,C,C, C,EEC | z C,C,C, C,[K:treble]EEE | z[K:bass] F,F,F, F,[K:treble]AGF | %19
[M:17/16] z G,G,G,G,3/2[K:bass][C,G,][C,C][G,B,] |[M:7/8] x7 |] %21
V:5
 x8 | x8 |[M:3/4] x6 |[M:1/4] x2 |[M:4/4] x8 |[M:3/4] x6 |[M:1/4] x2 |[M:4/4] x8 |[M:3/4] x6 | %9
[M:1/4] x2 |[M:4/4] x8 |[M:11/16] x11/2 |[M:3/8] x3 |[M:4/4] x8 | x8 | z2 D4 z2 | x8 | x8 | x8 | %19
[M:17/16] x17/2 |[M:7/8] x7 |] %21

